assets/icons/qvision/1k_plus.svg

<svg xmlns="http://www.w3.org/2000/svg" height="24" viewBox="0 0 24 24" width="24"><path d="M0 0h24v24H0V0z" fill="none"/><path d="M19 3H5c-1.1 0-2 .9-2 2v14c0 1.1.9 2 2 2h14c1.1 0 2-.9 2-2V5c0-1.1-.9-2-2-2zM9 15H7.5v-4.5H6V9h3v6zm4.75 0L12 12.75V15h-1.5V9H12v2.25L13.75 9h1.75l-2.25 3 2.25 3h-1.75zm5.75-2.5H18V14h-1v-1.5h-1.5v-1H17V10h1v1.5h1.5v1z"/></svg>

<svg width="24" height="24" viewBox="0 0 24 24" fill="none" xmlns="http://www.w3.org/2000/svg">
<g clip-path="url(#clip0_147_1313)">
<path d="M19 3H5C3.9 3 3 3.9 3 5V19C3 20.1 3.9 21 5 21H19C20.1 21 21 20.1 21 19V5C21 3.9 20.1 3 19 3ZM9 15H7.5V10.5H6V9H9V15ZM13.75 15L12 12.75V15H10.5V9H12V11.25L13.75 9H15.5L13.25 12L15.5 15H13.75ZM19.5 12.5H18V14H17V12.5H15.5V11.5H17V10H18V11.5H19.5V12.5Z" fill="#323232"/>
</g>
<defs>
<clipPath id="clip0_147_1313">
<rect width="24" height="24" fill="white"/>
</clipPath>
</defs>
</svg>
